src/assets/services/chrome-cast.svg

<svg xmlns="http://www.w3.org/2000/svg" width="24" height="24" viewBox="0 0 24 24"><path fill="#FFF" fill-rule="evenodd" d="M17.2413003,1.9999997 L6.7587003,1.9999997 C5.9537403,1.9999997 5.2893703,1.9999997 4.7481803,2.04419 C4.1860803,2.09012 3.6693703,2.18868 3.1840403,2.43598 C2.4313903,2.81947 1.8194703,3.43139 1.4359803,4.18404 C1.1886803,4.66937 1.0901203,5.18608 1.0441903,5.74818 C1,6.28937 1,6.95372 1,7.75869 L1,16.2413 C1,17.0463 1,17.7106 1.0441903,18.2518 C1.0901203,18.8139 1.1886803,19.3306 1.4359803,19.816 C1.8194703,20.5686 2.4313903,21.1805 3.1840403,21.564 C3.6693703,21.8113 4.1860803,21.9099 4.7481803,21.9558 C5.2893703,21.9999997 5.9537203,21.9999997 6.7586803,21.9999997 L17.2413003,21.9999997 C18.0463003,21.9999997 18.7106003,21.9999997 19.2518003,21.9558 C19.8139003,21.9099 20.3306003,21.8113 20.8160003,21.564 C21.5686003,21.1805 22.1805003,20.5686 22.5640003,19.816 C22.8113003,19.3306 22.9099003,18.8139 22.9558003,18.2518 C23,17.7106 23,17.0463 23,16.2413 L23,7.75868 C23,6.95372 23,6.28937 22.9558003,5.74818 C22.9099003,5.18608 22.8113003,4.66937 22.5640003,4.18404 C22.1805003,3.43139 21.5686003,2.81947 20.8160003,2.43598 C20.3306003,2.18868 19.8139003,2.09012 19.2518003,2.04419 C18.7106003,1.9999997 18.0463003,1.9999997 17.2413003,1.9999997 Z M4.0060803,9.93935 C4.0671303,9.39045 4.5615903,8.99497 5.1104903,9.05602 C7.3669203,9.30698 9.4708003,10.3183 11.0762003,11.9237 C12.6816003,13.529 13.6929003,15.6329 13.9438003,17.8894 C14.0049003,18.4383 13.6094003,18.9327 13.0605003,18.9938 C12.5116003,19.0548 12.0171003,18.6593 11.9561003,18.1104 C11.7553003,16.3053 10.9463003,14.6222 9.6620003,13.3379 C8.3776603,12.0536 6.6945603,11.2445 4.8894103,11.0438 C4.3405103,10.9827 3.9450303,10.4883 4.0060803,9.93935 Z M4.0201203,13.9001 C4.1304903,13.3589 4.6586403,13.0097 5.1997803,13.1201 C6.3528503,13.3552 7.4113103,13.9243 8.2434403,14.7564 C9.0755703,15.5885 9.6446003,16.647 9.8798003,17.8 C9.9901003,18.3412 9.6409003,18.8693 9.0997803,18.9797 C8.5586403,19.0901 8.0304903,18.7409 7.9201203,18.1997 C7.7633503,17.431 7.3839803,16.7254 6.8292303,16.1706 C6.2744803,15.6159 5.5688403,15.2365 4.8001203,15.0797 C4.2589803,14.9693 3.9097603,14.4412 4.0201203,13.9001 Z M4.9999503,16.9999 C4.4476703,16.9999 3.9999503,17.4476 3.9999503,17.9999 C3.9999503,18.5522 4.4476703,18.9999 4.9999503,18.9999 L5.0099503,18.9999 C5.5622403,18.9999 6.0099503,18.5522 6.0099503,17.9999 C6.0099503,17.4476 5.5622403,16.9999 5.0099503,16.9999 L4.9999503,16.9999 Z"/></svg>

<svg xmlns="http://www.w3.org/2000/svg" width="24" height="24"><path fill="#FFF" fill-rule="evenodd" d="M17.241 2H6.76c-.805 0-1.47 0-2.01.044-.563.046-1.08.145-1.565.392a4 4 0 0 0-1.748 1.748c-.247.485-.346 1.002-.392 1.564C1 6.29 1 6.954 1 7.758v8.483c0 .805 0 1.47.044 2.01.046.563.145 1.08.392 1.565a4 4 0 0 0 1.748 1.748c.485.247 1.002.346 1.564.392C5.29 22 5.954 22 6.758 22h10.483c.805 0 1.47 0 2.01-.044.563-.046 1.08-.145 1.565-.392a4 4 0 0 0 1.748-1.748c.247-.485.346-1.002.392-1.564.044-.541.044-1.206.044-2.01V7.758c0-.805 0-1.47-.044-2.01-.046-.563-.145-1.08-.392-1.565a4 4 0 0 0-1.748-1.748c-.485-.247-1.002-.346-1.564-.392C18.71 2 18.046 2 17.242 2ZM4.006 9.94a1 1 0 0 1 1.104-.884 10 10 0 0 1 8.834 8.833 1 1 0 1 1-1.988.221 8 8 0 0 0-7.067-7.066 1 1 0 0 1-.883-1.105Zm.014 3.96a1 1 0 0 1 1.18-.78 6 6 0 0 1 4.68 4.68 1 1 0 0 1-1.96.4 4 4 0 0 0-3.12-3.12 1 1 0 0 1-.78-1.18ZM5 17a1 1 0 1 0 0 2h.01a1 1 0 1 0 0-2H5Z"/></svg>
